packages/design-assets/icons/16px/Parameters.svg

<svg width="16" height="16" xmlns="http://www.w3.org/2000/svg"><path d="M4 13H1a1 1 0 0 1 0-2h3v2zM15 3H1a1 1 0 0 1 0-2h14a1 1 0 0 1 0 2zM4 8H1a1 1 0 0 1 0-2h3v2zm11.707 5.293l-1.414 1.414-2.274-2.274A3.947 3.947 0 0 1 10 13c-2.206 0-4-1.794-4-4s1.794-4 4-4 4 1.794 4 4c0 .74-.215 1.424-.567 2.019l2.274 2.274zM10 11c1.103 0 2-.897 2-2s-.897-2-2-2-2 .897-2 2 .897 2 2 2z" fill="#818F99" fill-rule="evenodd"/></svg>

<?xml version="1.0" encoding="UTF-8"?>
<svg width="16px" height="16px" viewBox="0 0 16 16" version="1.1" xmlns="http://www.w3.org/2000/svg" xmlns:xlink="http://www.w3.org/1999/xlink">
    <!-- Generator: Sketch 54.1 (76490) - https://sketchapp.com -->
    <title>Icons/16px/Parameters</title>
    <desc>Created with Sketch.</desc>
    <g id="Icons/16px/Parameters" stroke="none" stroke-width="1" fill="none" fill-rule="evenodd">
        <path d="M4,13 L1,13 C0.448,13 0,12.552 0,12 C0,11.448 0.448,11 1,11 L4,11 L4,13 Z M15,3 L1,3 C0.448,3 0,2.552 0,2 C0,1.448 0.448,1 1,1 L15,1 C15.552,1 16,1.448 16,2 C16,2.552 15.552,3 15,3 Z M4,8 L1,8 C0.448,8 0,7.552 0,7 C0,6.448 0.448,6 1,6 L4,6 L4,8 Z M15.707,13.293 L14.293,14.707 L12.019,12.433 C11.424,12.785 10.74,13 10,13 C7.794,13 6,11.206 6,9 C6,6.794 7.794,5 10,5 C12.206,5 14,6.794 14,9 C14,9.74 13.785,10.424 13.433,11.019 L15.707,13.293 Z M10,11 C11.103,11 12,10.103 12,9 C12,7.897 11.103,7 10,7 C8.897,7 8,7.897 8,9 C8,10.103 8.897,11 10,11 Z" id="i-16-parameters" fill="#818F99"></path>
    </g>
</svg>
